img/logos/codeigniter.svg

<?xml version="1.0" encoding="UTF-8" standalone="no"?>
<svg width="256px" height="304px" viewBox="0 0 256 304" version="1.1" xmlns="http://www.w3.org/2000/svg" xmlns:xlink="http://www.w3.org/1999/xlink" preserveAspectRatio="xMinYMin meet">
    <g>
        <path d="M13.1040062,287.305758 C7.90005751,287.305758 6.38666428,284.276558 6.38666428,279.736378 C6.38666428,278.222985 6.577347,276.516495 6.81147641,274.718285 C7.95074533,266.866501 10.7337476,262.374596 17.4510895,262.374596 C21.9936829,262.374596 24.2094644,264.406936 24.2094644,268.097491 L24.2094644,269.895702 L28.7158522,269.895702 C28.76654,269.895702 28.76654,268.2399 28.76654,267.863362 C28.76654,262.471144 25.5007967,257.356502 17.4583306,257.356502 C6.52907289,257.356502 2.03475359,263.294217 0.378951735,274.933105 C0.142408614,276.494772 -1.77635684e-14,277.95265 -1.77635684e-14,279.50949 C-1.77635684e-14,286.36924 2.69852255,292.608669 12.3485164,292.608669 C19.6813532,292.608669 24.0356776,289.033971 26.5893778,284.633786 L22.2833275,281.734926 C19.4930842,286.135111 16.463884,287.305758 13.1040062,287.305758 L13.1040062,287.305758 Z M42.6743101,265.637925 C33.9198009,265.637925 30.1375246,270.129831 28.8606745,279.070195 C28.7158522,280.11533 28.6217177,281.201497 28.6217177,282.19353 C28.6217177,287.9647 31.3178265,292.555567 38.7906582,292.555567 C47.5451674,292.555567 51.3781315,287.870565 52.6549816,279.070195 C52.7973902,277.935754 52.8915247,276.895447 52.8915247,275.85514 C52.8939384,269.989836 50.103695,265.637925 42.6743101,265.637925 L42.6743101,265.637925 Z M46.3165914,279.072609 C45.3704189,285.555822 43.338079,287.542301 39.5027013,287.542301 C36.4300544,287.542301 34.9166612,286.265451 34.9166612,282.432487 C34.9166612,281.486314 35.0132094,280.351873 35.2014784,279.072609 C36.1476509,272.640084 38.0399959,270.653605 41.9188203,270.653605 C45.042155,270.653605 46.6014086,271.930455 46.6014086,275.80928 C46.6014086,276.755452 46.5048604,277.844033 46.3165914,279.072609 L46.3165914,279.072609 Z M74.8972761,257.827175 L73.432157,266.511687 C73.3380225,267.267176 73.3862966,267.016151 73.6711138,267.72578 C72.3001292,266.685473 69.8381497,265.997567 68.1823479,265.997567 C60.3281508,265.997567 55.9303797,269.552955 54.511121,279.487766 C54.3228519,280.670482 54.2745778,281.667342 54.2745778,282.659375 C54.2745778,289.900491 58.532354,292.599014 64.2552493,292.599014 C66.6713684,292.599014 69.0343859,292.649702 70.8784567,291.090448 L71.3491293,294.032755 L75.8917227,294.032755 L81.1898059,257.827175 L74.8972761,257.827175 L74.8972761,257.827175 Z M70.4029568,286.168903 C68.2764824,287.443339 66.1958684,287.73057 64.9190183,287.73057 C61.465006,287.73057 60.5188335,285.93236 60.5188335,283.047982 C60.5188335,281.959401 60.6612421,280.684964 60.8519248,279.309152 C61.9380922,271.788047 64.3517976,270.460509 67.4751322,270.460509 C69.5074721,270.460509 71.0667258,270.7936 72.5366723,271.599777 L70.4029568,286.168903 L70.4029568,286.168903 Z M95.0058551,265.637925 C86.3454804,265.637925 82.2808007,269.750879 80.9074023,279.070195 C80.76258,280.207051 80.6684455,281.295632 80.6684455,282.335939 C80.6684455,288.722603 83.9341888,292.555567 91.1222033,292.555567 C96.7051037,292.555567 100.871159,290.235996 103.094182,285.97822 L98.3150451,284.037601 C96.9440605,286.118215 95.0999896,287.537474 91.8342463,287.537474 C88.3343736,287.537474 86.9151149,286.596129 86.9151149,283.472794 C86.9151149,282.857299 86.963389,281.961814 87.0575235,281.961814 L104.134489,281.961814 C104.373445,279.548109 104.653435,277.841619 104.653435,276.427188 C104.653435,271.698739 102.857639,265.637925 95.0058551,265.637925 L95.0058551,265.637925 Z M98.2691847,277.136817 L87.8612874,277.136817 C88.9040081,274.723112 90.6515307,270.986696 94.2479517,270.986696 C97.038195,270.986696 98.4115933,272.618361 98.4115933,275.408604 C98.4091796,275.881691 98.3657329,277.136817 98.2691847,277.136817 L98.2691847,277.136817 Z M122.860015,265.068291 L123.427235,260.24088 L110.084272,260.24088 L109.519465,265.068291 L113.019338,265.068291 L109.237062,289.205344 L105.732362,289.205344 L105.167555,294.032755 L118.508104,294.032755 L119.077738,289.205344 L115.575452,289.205344 L119.357728,265.068291 L122.860015,265.068291 Z M149.970753,272.309407 L151.674829,267.481996 L147.086375,267.481996 L143.777185,268.165075 C141.9307,266.984773 139.42286,266.098943 137.059843,266.098943 C130.291813,266.098943 124.523057,269.3671 124.523057,276.796485 C124.523057,278.879513 125.278547,280.561865 126.176446,281.698721 C124.759601,282.45421 123.528611,283.718992 123.528611,285.425482 C123.528611,286.180971 123.811014,286.955771 124.380649,287.662986 C121.539718,289.369476 119.794609,292.195925 119.794609,295.505115 C119.794609,301.894193 126.463677,303.257936 131.573491,303.257936 C138.006015,303.257936 145.671944,301.78799 145.671944,293.603115 C145.671944,290.812872 143.922007,288.633296 138.860467,287.687123 L129.72942,285.980634 C128.689113,285.789951 128.45257,285.459273 128.45257,284.986187 C128.45257,284.276558 128.882209,283.90002 129.589425,283.90002 L130.20492,283.994154 C131.43591,284.276558 132.855168,284.42138 134.320287,284.42138 C140.897634,284.42138 146.762938,281.580449 146.762938,274.201752 C146.762938,273.159031 146.574669,272.454229 146.101583,271.317374 C146.905347,271.696326 147.948068,272.311821 148.370466,272.311821 L149.970753,272.311821 L149.970753,272.309407 Z M136.963295,291.891798 C138.759091,292.224889 139.372173,292.886245 139.372173,294.06896 C139.372173,297.901924 135.256805,298.375011 132.278293,298.375011 C127.735699,298.375011 126.034037,297.288843 126.034037,294.872724 C126.034037,292.743836 126.647118,291.751803 128.068791,290.235996 L136.963295,291.891798 L136.963295,291.891798 Z M135.020262,279.499835 C132.275879,279.499835 130.762486,278.507802 130.762486,276.139957 C130.762486,272.640084 132.797239,270.605331 136.345386,270.605331 C139.183904,270.605331 140.557302,271.788047 140.557302,274.10279 C140.557302,277.605076 138.568409,279.499835 135.020262,279.499835 L135.020262,279.499835 Z M166.777383,265.637925 C164.127134,265.637925 161.764117,266.938913 158.829051,269.253656 L158.404239,267.481996 L153.197877,267.481996 L149.555595,294.032755 L155.848125,294.032755 L158.592508,273.897625 C160.438993,272.763183 162.707876,271.114623 164.648495,271.114623 C167.011512,271.114623 167.865964,272.256305 167.865964,274.431054 C167.865964,274.952414 167.815276,276.494772 167.721142,277.061993 L165.406398,294.032755 L171.698928,294.032755 L174.013671,276.924411 C174.11022,276.123061 174.204354,274.805178 174.204354,274.049688 C174.206768,269.550542 172.075466,265.637925 166.777383,265.637925 L166.777383,265.637925 Z M186.157023,287.380583 L186.205297,286.731296 L188.947266,267.481996 L178.491095,267.481996 L177.832153,272.309407 L182.418193,272.309407 C182.039242,272.309407 181.802698,272.731805 181.756838,273.113171 L179.864493,285.93236 C179.770359,286.550268 179.724498,287.834359 179.724498,288.350892 C179.724498,291.662496 181.520295,294.032755 185.208437,294.032755 L188.425906,294.032755 L189.135535,289.205344 L187.103195,289.205344 C186.391152,289.205344 186.157023,287.947804 186.157023,287.380583 L186.157023,287.380583 Z M190.224116,257.827175 L184.073995,257.827175 C183.695043,257.827175 183.695043,256.434467 183.649183,256.907553 L182.794731,263.709375 C182.746457,264.136601 182.746457,265.068291 183.125409,265.068291 L189.277944,265.068291 C189.656896,265.068291 189.656896,263.414903 189.702756,262.985263 L190.557208,257.735454 C190.605482,257.262368 190.605482,257.827175 190.224116,257.827175 L190.224116,257.827175 Z M203.055374,287.542301 C201.49612,287.542301 200.738217,286.878532 200.738217,285.461687 L200.786491,285.365139 L202.77297,272.309407 L209.963398,272.309407 L212.138147,267.481996 L203.434326,267.481996 L204.899445,256.859279 L198.278651,258.976099 L197.093522,267.481996 L193.262971,267.481996 L192.601616,272.309407 L197.047661,272.309407 C196.622849,274.723112 196.195623,273.156617 196.149763,273.632117 L194.445687,285.080322 C194.351552,285.601682 194.351552,285.980634 194.351552,286.451306 C194.351552,290.945626 197.663156,292.627978 201.640942,292.627978 C205.329084,292.627978 208.31001,291.551466 210.629581,289.608433 L207.694515,285.99753 C206.224569,286.895428 205.232536,287.542301 203.055374,287.542301 L203.055374,287.542301 Z M226.142465,265.637925 C217.484504,265.637925 213.417411,269.750879 212.044012,279.070195 C211.901604,280.207051 211.807469,281.295632 211.807469,282.335939 C211.807469,288.722603 215.070799,292.555567 222.261227,292.555567 C227.844127,292.555567 232.010183,290.235996 234.230792,285.97822 L229.454069,284.037601 C228.083084,286.118215 226.2366,287.537474 222.970856,287.537474 C219.473397,287.537474 218.051725,286.596129 218.051725,283.472794 C218.051725,282.857299 218.102413,281.961814 218.196547,281.961814 L235.273512,281.961814 C235.510056,279.548109 235.794873,277.841619 235.794873,276.427188 C235.794873,271.698739 233.996662,265.637925 226.142465,265.637925 L226.142465,265.637925 Z M229.408208,277.136817 L219.000311,277.136817 C220.040618,274.723112 221.788141,270.986696 225.386975,270.986696 C228.177219,270.986696 229.550617,272.618361 229.550617,275.408604 C229.548203,275.881691 229.502343,277.136817 229.408208,277.136817 L229.408208,277.136817 Z M253.204929,265.637925 C250.933633,265.637925 248.804744,266.938913 246.675856,268.968839 L246.296905,267.481996 L241.09537,267.481996 L237.450675,294.032755 L243.791478,294.032755 L246.581722,273.472813 C248.237524,272.48078 250.129869,271.633569 251.928079,271.633569 C253.064934,271.633569 254.151102,271.452541 255.191409,271.59495 L256,266.108598 C255.049,265.920329 254.102828,265.637925 253.204929,265.637925 L253.204929,265.637925 Z M92.541462,238.809591 C78.2209483,232.62085 64.8200564,216.888319 64.7886782,200.791318 C64.7500589,183.241267 75.872413,168.341464 89.7053582,158.549061 C88.0423153,164.831936 87.1347621,170.578969 91.2549571,176.198075 C95.0855074,181.423747 101.793194,183.962965 108.126757,182.584739 C122.927598,179.345546 123.605849,163.074759 114.832031,153.596138 C106.157174,144.209238 97.7647203,133.605831 101.066669,119.992533 C102.720057,113.168988 106.91025,106.777496 112.217988,102.208352 C108.138826,112.930031 119.731852,123.504474 127.37123,128.771179 C140.622472,137.909467 155.160219,144.815078 167.344604,155.527102 C180.161379,166.784624 189.625517,182.007863 187.713863,199.661704 C185.642904,218.79756 170.43656,232.106731 153.381318,238.826487 C189.422766,230.870914 226.663826,202.898483 227.426556,162.925109 C228.058947,130.040788 205.500457,104.733088 177.554577,90.2436145 L176.094285,89.4470918 C176.861844,91.3080586 177.112869,92.8914493 177.083905,94.3082943 C177.33493,93.2631599 177.503889,92.189061 177.552163,91.0811703 C177.540095,92.459396 177.363894,93.7603832 177.040458,94.9817181 L177.083905,94.3082943 C176.66392,96.0823677 175.959118,97.7309284 175.015359,99.2394943 L175.425689,98.7977862 C169.85003,108.044691 154.75713,110.052894 147.301195,100.477725 C135.314734,85.0758714 147.55222,68.4695788 149.263537,52.160172 C151.406907,31.7185016 138.587718,11.8754302 122.693469,-1.42108547e-14 C131.447978,14.1612091 119.915294,32.8963898 110.687699,43.3694572 C101.740093,53.5239155 90.8591094,62.0008486 80.9822272,71.2260303 C70.3715786,81.1342906 60.1712599,91.5711525 51.4505426,103.200385 C34.009108,126.475745 23.3308756,155.749163 31.1778316,184.788452 C39.0199602,213.806017 64.1562874,232.278104 92.541462,238.809591 L92.541462,238.809591 Z" fill="#EE4323"></path>
    </g>
</svg>

<svg width="256" height="304" viewBox="0 0 256 304" xmlns="http://www.w3.org/2000/svg" preserveAspectRatio="xMinYMin meet"><path d="M13.104 287.306c-5.204 0-6.717-3.03-6.717-7.57 0-1.513.19-3.22.424-5.018 1.14-7.85 3.924-12.343 10.64-12.343 4.544 0 6.76 2.032 6.76 5.722v1.8h4.506c.05 0 .05-1.657.05-2.034 0-5.392-3.265-10.506-11.308-10.506-10.93 0-15.423 5.937-17.08 17.576-.236 1.562-.378 3.02-.378 4.576 0 6.86 2.7 13.1 12.35 13.1 7.33 0 11.686-3.576 14.24-7.976l-4.307-2.9c-2.79 4.4-5.82 5.572-9.18 5.572zm29.57-21.668c-8.754 0-12.536 4.492-13.813 13.432-.144 1.045-.238 2.13-.238 3.124 0 5.77 2.696 10.362 10.17 10.362 8.753 0 12.586-4.685 13.863-13.486.142-1.134.237-2.175.237-3.215.002-5.865-2.788-10.217-10.218-10.217zm3.643 13.435c-.947 6.483-2.98 8.47-6.814 8.47-3.073 0-4.586-1.278-4.586-5.11 0-.947.096-2.08.284-3.36.948-6.433 2.84-8.42 6.72-8.42 3.122 0 4.68 1.277 4.68 5.156 0 .945-.095 2.034-.283 3.263zm28.58-21.246l-1.465 8.685c-.094.755-.046.504.24 1.214-1.372-1.04-3.834-1.728-5.49-1.728-7.854 0-12.252 3.555-13.67 13.49-.19 1.182-.237 2.18-.237 3.17 0 7.242 4.257 9.94 9.98 9.94 2.416 0 4.78.052 6.623-1.508l.47 2.943h4.544l5.298-36.206h-6.293zm-4.494 28.342c-2.127 1.273-4.207 1.56-5.484 1.56-3.455 0-4.4-1.798-4.4-4.682 0-1.09.14-2.363.332-3.74 1.086-7.52 3.5-8.847 6.623-8.847 2.032 0 3.592.334 5.062 1.14l-2.134 14.57zm24.603-20.532c-8.66 0-12.725 4.113-14.1 13.432-.143 1.137-.238 2.226-.238 3.266 0 6.387 3.266 10.22 10.454 10.22 5.583 0 9.75-2.32 11.972-6.578l-4.78-1.94c-1.37 2.08-3.214 3.5-6.48 3.5-3.5 0-4.92-.942-4.92-4.065 0-.616.05-1.51.144-1.51h17.076c.24-2.415.52-4.12.52-5.536 0-4.728-1.796-10.79-9.648-10.79zm3.263 11.5H87.86c1.044-2.415 2.792-6.15 6.388-6.15 2.79 0 4.164 1.63 4.164 4.42-.003.474-.046 1.73-.143 1.73zm24.59-12.07l.567-4.827h-13.343l-.565 4.828h3.5l-3.783 24.137h-3.505l-.564 4.828h13.34l.57-4.828h-3.503l3.783-24.137h3.502zm27.11 7.24l1.705-4.826h-4.59l-3.308.683c-1.846-1.18-4.354-2.066-6.717-2.066-6.768 0-12.537 3.267-12.537 10.696 0 2.084.756 3.766 1.653 4.903-1.416.754-2.647 2.02-2.647 3.725 0 .756.28 1.53.85 2.238-2.84 1.706-4.585 4.533-4.585 7.842 0 6.39 6.67 7.753 11.778 7.753 6.433 0 14.1-1.47 14.1-9.655 0-2.79-1.75-4.97-6.813-5.916l-9.13-1.706c-1.04-.19-1.277-.52-1.277-.994 0-.71.43-1.086 1.136-1.086l.615.094c1.23.283 2.65.427 4.115.427 6.578 0 12.443-2.84 12.443-10.218 0-1.043-.188-1.748-.66-2.885.802.38 1.845.995 2.267.995h1.6v-.003zm-13.007 19.584c1.796.333 2.41.994 2.41 2.177 0 3.832-4.116 4.305-7.095 4.305-4.542 0-6.244-1.086-6.244-3.502 0-2.13.613-3.12 2.035-4.637l8.893 1.656zM135.02 279.5c-2.744 0-4.258-.992-4.258-3.36 0-3.5 2.035-5.535 5.583-5.535 2.84 0 4.212 1.183 4.212 3.498 0 3.502-1.99 5.397-5.537 5.397zm31.757-13.862c-2.65 0-5.013 1.3-7.948 3.616l-.426-1.772h-5.206l-3.642 26.55h6.292l2.745-20.134c1.846-1.135 4.115-2.783 6.055-2.783 2.364 0 3.218 1.14 3.218 3.316 0 .522-.05 2.065-.145 2.632l-2.314 16.97h6.293l2.314-17.108c.096-.8.19-2.12.19-2.874.003-4.5-2.13-8.412-7.427-8.412zm19.38 21.743l.048-.65 2.742-19.248H178.49l-.658 4.827h4.586c-.38 0-.615.422-.66.803l-1.894 12.82c-.094.617-.14 1.9-.14 2.418 0 3.312 1.796 5.683 5.484 5.683h3.218l.71-4.828h-2.033c-.712 0-.946-1.257-.946-1.824zm4.067-29.553h-6.15c-.38 0-.38-1.393-.425-.92l-.855 6.802c-.05.427-.05 1.358.33 1.358h6.153c.38 0 .38-1.653.425-2.083l.854-5.25c.048-.473.048.092-.333.092zm12.83 29.715c-1.558 0-2.316-.663-2.316-2.08l.048-.097 1.987-13.056h7.19l2.175-4.828h-8.704l1.465-10.623-6.62 2.116-1.186 8.506h-3.83l-.662 4.827h4.446c-.425 2.413-.852.847-.898 1.322l-1.704 11.448c-.094.522-.094.9-.094 1.37 0 4.496 3.31 6.178 7.29 6.178 3.687 0 6.668-1.077 8.988-3.02l-2.935-3.61c-1.47.897-2.462 1.544-4.64 1.544zm23.088-21.904c-8.657 0-12.725 4.113-14.098 13.432-.142 1.137-.237 2.226-.237 3.266 0 6.387 3.264 10.22 10.454 10.22 5.584 0 9.75-2.32 11.97-6.578l-4.776-1.94c-1.37 2.08-3.217 3.5-6.483 3.5-3.497 0-4.918-.942-4.918-4.065 0-.616.05-1.51.145-1.51h17.077c.236-2.415.52-4.12.52-5.536 0-4.728-1.797-10.79-9.652-10.79zm3.266 11.5H219c1.04-2.415 2.788-6.15 6.387-6.15 2.79 0 4.164 1.63 4.164 4.42-.002.474-.048 1.73-.142 1.73zm23.797-11.5c-2.27 0-4.4 1.3-6.53 3.33l-.378-1.486h-5.202l-3.644 26.55h6.34l2.792-20.56c1.656-.99 3.548-1.838 5.346-1.838 1.137 0 2.223-.18 3.263-.04l.81-5.485c-.95-.19-1.897-.472-2.795-.472zM92.54 238.81c-14.32-6.19-27.72-21.922-27.75-38.02-.04-17.55 11.082-32.45 24.915-42.24-1.663 6.282-2.57 12.03 1.55 17.648 3.83 5.226 10.538 7.765 16.872 6.387 14.8-3.24 15.48-19.51 6.705-28.99-8.675-9.386-17.067-19.99-13.765-33.602 1.653-6.824 5.843-13.216 11.15-17.785-4.078 10.722 7.515 21.296 15.154 26.563 13.252 9.14 27.79 16.045 39.975 26.757 12.816 11.258 22.28 26.48 20.37 44.135-2.072 19.136-17.278 32.445-34.334 39.164 36.043-7.955 73.284-35.928 74.047-75.9.632-32.885-21.927-58.193-49.872-72.682l-1.46-.797c.767 1.86 1.018 3.444.99 4.86.25-1.044.42-2.118.467-3.226-.012 1.38-.188 2.68-.512 3.902l.044-.674c-.42 1.774-1.125 3.423-2.07 4.93l.412-.44c-5.576 9.247-20.67 11.255-28.125 1.68-11.985-15.402.252-32.008 1.964-48.318 2.143-20.44-10.676-40.285-26.57-52.16 8.754 14.16-2.78 32.896-12.006 43.37C101.74 53.523 90.858 62 80.982 71.225c-10.61 9.908-20.81 20.345-29.53 31.974-17.443 23.276-28.12 52.55-20.274 81.588 7.842 29.018 32.978 47.49 61.363 54.022z" fill="#EE4323"/></svg>
